svg/weather/drizzle_fill.svg

<?xml version="1.0" encoding="UTF-8"?>
<svg width="24px" height="24px" viewBox="0 0 24 24" version="1.1" xmlns="http://www.w3.org/2000/svg" xmlns:xlink="http://www.w3.org/1999/xlink">
    <title>drizzle_fill</title>
    <g id="Icon" stroke="none" stroke-width="1" fill="none" fill-rule="evenodd">
        <g id="Weather" transform="translate(-97.000000, -144.000000)" fill-rule="nonzero">
            <g id="drizzle_fill" transform="translate(97.000000, 144.000000)">
                <path d="M24,0 L24,24 L0,24 L0,0 L24,0 Z M12.5935,23.2578 L12.5819,23.2595 L12.5109,23.295 L12.4919,23.2987 L12.4767,23.295 L12.4057,23.2595 C12.3958,23.2564 12.387,23.259 12.3821,23.2649 L12.378,23.2758 L12.3609,23.7031 L12.3659,23.7235 L12.3769,23.7357 L12.4805,23.8097 L12.4953,23.8136 L12.5071,23.8097 L12.6107,23.7357 L12.6233,23.7197 L12.6267,23.7031 L12.6096,23.2758 C12.6076,23.2657 12.601,23.2593 12.5935,23.2578 Z M12.8584,23.1453 L12.8445,23.1473 L12.6598,23.2397 L12.6499,23.2499 L12.6472,23.2611 L12.6651,23.6906 L12.6699,23.7034 L12.6784,23.7105 L12.8793,23.8032 C12.8914,23.8069 12.9022,23.803 12.9078,23.7952 L12.9118,23.7812 L12.8777,23.1665 C12.8753,23.1546 12.8674,23.147 12.8584,23.1453 Z M12.143,23.1473 C12.1332,23.1424 12.1222,23.1453 12.1156,23.1526 L12.1099,23.1665 L12.0758,23.7812 C12.0751,23.7927 12.0828,23.8019 12.0926,23.8046 L12.1083,23.8032 L12.3092,23.7105 L12.3186,23.7024 L12.3225,23.6906 L12.3404,23.2611 L12.3372,23.2485 L12.3278,23.2397 L12.143,23.1473 Z" id="MingCute"></path>
                <path d="M10.9241,15.7922 C11.0671,15.2587 11.6154,14.9422 12.1489,15.0851 C12.6823,15.228 12.9989,15.7764 12.856,16.3098 L12.5972,17.2758 C12.4542,17.8092 11.9059,18.1258 11.3724,17.9829 C10.8389,17.8399 10.5224,17.2916 10.6653,16.7581 L10.9241,15.7922 Z M11.5,2 C14.2856,2 16.66,3.75154 17.5856,6.21198 C20.13,6.90766 22,9.23462 22,12 C22,15.3137 19.3137,18 16,18 L14.4657,18 C14.4891,17.9324 14.5102,17.8636 14.529,17.7934 L14.7878,16.8275 C15.2167,15.2271 14.2669,13.5821 12.6665,13.1533 C11.0661,12.7244 9.4211,13.6742 8.99228,15.2746 L8.73346,16.2405 C8.59203,16.7683 8.60055,17.301 8.7329,17.7933 C8.66706,17.859 8.60411,17.928 8.54434,18 L7,18 C4.23858,18 2,15.7614 2,13 C2,10.9486 3.23468,9.18749 5.00053,8.41614 C5.04543,4.86494 7.93814,2 11.5,2 Z M11.8207,20.1736 C11.9636,19.6401 11.6471,19.0917 11.1136,18.9488 C10.5801,18.8059 10.0318,19.1224 9.88884,19.6559 L9.63003,20.6218 C9.48708,21.1553 9.80367,21.7036 10.3371,21.8466 C10.8706,21.9895 11.4189,21.6729 11.5619,21.1395 L11.8207,20.1736 Z" id="形状" fill="#09244B"></path>
            </g>
        </g>
    </g>
</svg>

<svg xmlns="http://www.w3.org/2000/svg" width="24" height="24"><g fill="none" fill-rule="nonzero"><path d="M24 0v24H0V0h24ZM12.594 23.258l-.012.002-.071.035-.02.004-.014-.004-.071-.036c-.01-.003-.019 0-.024.006l-.004.01-.017.428.005.02.01.013.104.074.015.004.012-.004.104-.074.012-.016.004-.017-.017-.427c-.002-.01-.009-.017-.016-.018Zm.264-.113-.014.002-.184.093-.01.01-.003.011.018.43.005.012.008.008.201.092c.012.004.023 0 .029-.008l.004-.014-.034-.614c-.003-.012-.01-.02-.02-.022Zm-.715.002a.023.023 0 0 0-.027.006l-.006.014-.034.614c0 .012.007.02.017.024l.015-.002.201-.093.01-.008.003-.011.018-.43-.003-.012-.01-.01-.184-.092Z"/><path fill="#09244B" d="M10.924 15.792a1 1 0 0 1 1.932.518l-.259.966a1 1 0 0 1-1.932-.518l.26-.966ZM11.5 2a6.502 6.502 0 0 1 6.086 4.212A6.002 6.002 0 0 1 16 18h-1.534c.023-.068.044-.136.063-.207l.259-.965a3 3 0 1 0-5.796-1.553l-.259.966a2.986 2.986 0 0 0 0 1.552 2.99 2.99 0 0 0-.189.207H7a5 5 0 0 1-2-9.584A6.5 6.5 0 0 1 11.5 2Zm.32 18.174a1 1 0 1 0-1.931-.518l-.259.966a1 1 0 0 0 1.932.518l.259-.966Z"/></g></svg>
